X: 3
T: Roisin Dubh
R: hornpipe
M: 4/4
L: 1/8
K: Dmaj
|:{F}A4 FA3 | D6 FA | {d}e3 f/2e/2 d2 e f3 | e d3 B A3 | {F}A3 F D E3 | {FEDE}FE D6 |
{A}d>ef2 g<f d<e | (f/2e/2d/2c/2)/2 d3 {edc}A3| F<A d<e def2 | e/2f/2e/2d/2 d6|
A<d e/2f3 g<f z {efedc}d2 |{edc} A4 F<A d<e | {fede} f3 e d3 B zF/2A3 z|
F/2A3 F<A {B}A |D6FA | {d}e3 f/2e/2 d2 e f3 | e d3 B A3 | {F}A3 F D E3 | {FEDE}FE D6 :|


Tune 4184	Setting 4184

